src/assets/alert-warning-icon.svg

<svg width="75" height="75" viewBox="0 0 44 43" fill="none" xmlns="http://www.w3.org/2000/svg">
<path d="M19.4171 4.37208C20.5782 2.40666 23.4218 2.40667 24.5829 4.37209L38.3787 27.7241C39.5602 29.7239 38.1186 32.25 35.7958 32.25H8.20419C5.88142 32.25 4.43979 29.7239 5.62126 27.7241L19.4171 4.37208Z" fill="#FDA302"/>
<path d="M23.8454 11.7551C23.8454 10.6711 23.0508 10 22 10C20.974 10 20.1538 10.6969 20.1538 11.7551V21.6947C20.1538 22.753 20.974 23.4499 22 23.4499C23.0508 23.4499 23.8454 22.778 23.8454 21.6947V11.7551ZM24 26.9859C23.9991 26.4521 23.7881 25.9404 23.4132 25.563C23.0383 25.1857 22.5301 24.9734 22 24.9727C21.4699 24.9734 20.9617 25.1857 20.5868 25.563C20.2119 25.9404 20.0009 26.4521 20 26.9859C20.0007 27.5199 20.2116 28.0318 20.5865 28.4094C20.9614 28.7869 21.4698 28.9993 22 29C22.5302 28.9993 23.0386 28.7869 23.4135 28.4094C23.7884 28.0318 23.9993 27.5199 24 26.9859Z" fill="white"/>
</svg>

<svg width="75" height="75" viewBox="0 0 44 43" fill="none" xmlns="http://www.w3.org/2000/svg"><path d="M19.417 4.372c1.161-1.965 4.005-1.965 5.166 0l13.796 23.352c1.181 2-.26 4.526-2.583 4.526H8.204c-2.323 0-3.764-2.526-2.583-4.526L19.417 4.372z" fill="#FDA302"/><path d="M23.845 11.755C23.845 10.671 23.051 10 22 10c-1.026 0-1.846.697-1.846 1.755v9.94c0 1.058.82 1.755 1.846 1.755 1.05 0 1.845-.672 1.845-1.755v-9.94zM24 26.985c0-.533-.212-1.045-.587-1.422a1.996 1.996 0 00-1.413-.59c-.53 0-1.038.213-1.413.59a2.024 2.024 0 000 2.846c.374.378.883.59 1.413.591.53 0 1.039-.213 1.413-.59.375-.378.586-.89.587-1.424z" fill="#fff"/></svg>
